X: 10743
M: 2/4
L: 1/16
K: C
c2c2 c2eg | a2 f4 dc | B2B2 BGAB | cege afed |\
c2c2 c2eg | a2 f4 dc | Bcde gfed | c2e2c2 H|]
fgef d2G2 | efde c2G2 | AFfe dfaf | f4 d2G2 |\
fgef dagf | efge gagf | d2d2 cBAB | c2e2"^D.C."c2 |]
E2 |\



